Gurmukhi/0A3C.svg

<svg enable-background="new 0 0 350 592" viewBox="0 0 350 592" xmlns="http://www.w3.org/2000/svg"><path d="m347.267517 593c-115.69194 0-230.855034 0-346.142824 0 0-197.244019 0-394.488144 0-591.866132h349.736025v591.866132c-.923554 0-1.993958 0-3.593201 0m-193.290054-155.675812c.799988 10.757202 12.323288 13.088227 18.434006 9.069702 4.763885-3.132934 6.636489-8.964904 4.58638-14.433838-1.960007-5.228576-7.241715-8.148071-13.21959-7.307373-5.754989.809418-9.19844 4.954041-9.800796 12.671509z" fill="#fff"/><path d="m153.963516 436.903503c.616303-7.296783 4.059754-11.441406 9.814743-12.250824 5.977875-.840698 11.259583 2.078797 13.21959 7.307373 2.050109 5.468934.177505 11.300904-4.58638 14.433838-6.110718 4.018525-17.634018 1.6875-18.447953-9.490387z" fill="#050505"/></svg>

<svg version="1.1" id="Layer_1" xmlns="http://www.w3.org/2000/svg" xmlns:xlink="http://www.w3.org/1999/xlink" x="0px" y="0px"
	 width="100%" viewBox="0 0 350 592" enable-background="new 0 0 350 592" xml:space="preserve">
<path fill="#FFFFFF" opacity="1.000000" stroke="none" 
	d="
M347.267517,593.000000 
	C231.575577,593.000000 116.412483,593.000000 1.124693,593.000000 
	C1.124693,395.755981 1.124693,198.511856 1.124693,1.133868 
	C117.573662,1.133868 234.147537,1.133868 350.860718,1.133868 
	C350.860718,198.234268 350.860718,395.468658 350.860718,593.000000 
	C349.937164,593.000000 348.866760,593.000000 347.267517,593.000000 
M153.977463,437.324188 
	C154.777451,448.081390 166.300751,450.412415 172.411469,446.393890 
	C177.175354,443.260956 179.047958,437.428986 176.997849,431.960052 
	C175.037842,426.731476 169.756134,423.811981 163.778259,424.652679 
	C158.023270,425.462097 154.579819,429.606720 153.977463,437.324188 
z"/>
<path fill="#050505" opacity="1.000000" stroke="none" 
	d="
M153.963516,436.903503 
	C154.579819,429.606720 158.023270,425.462097 163.778259,424.652679 
	C169.756134,423.811981 175.037842,426.731476 176.997849,431.960052 
	C179.047958,437.428986 177.175354,443.260956 172.411469,446.393890 
	C166.300751,450.412415 154.777451,448.081390 153.963516,436.903503 
z"/>
</svg>
